symbols/web/edgesensor_high/materialsymbolsrounded/edgesensor_high_gradN25fill1_40px.svg

<svg xmlns="http://www.w3.org/2000/svg" height="40" width="40"><path d="M6.583 23.25q-.541 0-.916-.375t-.375-.958v-8.792q0-.542.375-.937.375-.396.916-.396.584 0 .959.396.375.395.375.937v8.792q0 .583-.396.958t-.938.375Zm-4.916 4.958q-.542 0-.917-.396-.375-.395-.375-.937v-8.833q0-.5.375-.896t.917-.396q.583 0 .958.396t.375.896v8.833q0 .542-.396.937-.396.396-.937.396Zm36.666-4.958q-.583 0-.958-.375T37 21.917v-8.792q0-.542.396-.937.396-.396.937-.396.542 0 .917.396.375.395.375.937v8.792q0 .583-.375.958t-.917.375Zm-4.916 4.958q-.584 0-.959-.396-.375-.395-.375-.937v-8.833q0-.5.396-.896t.938-.396q.541 0 .916.396t.375.896v8.833q0 .542-.375.937-.375.396-.916.396Zm-20.584 8.167q-1.041 0-1.833-.792-.792-.791-.792-1.833V6.25q0-1.042.792-1.833.792-.792 1.833-.792h14.334q1.041 0 1.833.792.792.791.792 1.833v27.5q0 1.042-.792 1.833-.792.792-1.833.792Zm0-6.667h14.334V10.292H12.833Z"/></svg>

<svg xmlns="http://www.w3.org/2000/svg" height="40" width="40"><path d="M6.583 23.25Q6.042 23.25 5.667 22.875Q5.292 22.5 5.292 21.917V13.125Q5.292 12.583 5.667 12.188Q6.042 11.792 6.583 11.792Q7.167 11.792 7.542 12.188Q7.917 12.583 7.917 13.125V21.917Q7.917 22.5 7.521 22.875Q7.125 23.25 6.583 23.25ZM1.667 28.208Q1.125 28.208 0.75 27.812Q0.375 27.417 0.375 26.875V18.042Q0.375 17.542 0.75 17.146Q1.125 16.75 1.667 16.75Q2.25 16.75 2.625 17.146Q3 17.542 3 18.042V26.875Q3 27.417 2.604 27.812Q2.208 28.208 1.667 28.208ZM38.333 23.25Q37.75 23.25 37.375 22.875Q37 22.5 37 21.917V13.125Q37 12.583 37.396 12.188Q37.792 11.792 38.333 11.792Q38.875 11.792 39.25 12.188Q39.625 12.583 39.625 13.125V21.917Q39.625 22.5 39.25 22.875Q38.875 23.25 38.333 23.25ZM33.417 28.208Q32.833 28.208 32.458 27.812Q32.083 27.417 32.083 26.875V18.042Q32.083 17.542 32.479 17.146Q32.875 16.75 33.417 16.75Q33.958 16.75 34.333 17.146Q34.708 17.542 34.708 18.042V26.875Q34.708 27.417 34.333 27.812Q33.958 28.208 33.417 28.208ZM12.833 36.375Q11.792 36.375 11 35.583Q10.208 34.792 10.208 33.75V6.25Q10.208 5.208 11 4.417Q11.792 3.625 12.833 3.625H27.167Q28.208 3.625 29 4.417Q29.792 5.208 29.792 6.25V33.75Q29.792 34.792 29 35.583Q28.208 36.375 27.167 36.375ZM12.833 29.708H27.167V10.292H12.833Z"/></svg>
